X: 2789
T: Banshee, The
R: reel
M: 4/4
K: Gmajor
DE|G2 GE EDEG|AGAB d2Bd|egdB BAGA|BAGE EDEG|
ABAG EDEG|AGAB d2Bd|egdB BAGA|BAGE ED D2:|
|:eaag efge|dBBA B2 Bd|eB B2 eBgB|egdB A2 Bd|
eaag efge|dBBA B2 Bd|eged BAGA|BAGE ED D2:|

